X:1
T:Egypt, SM
T:Egypt, SM
T:James Leach (1762-1797)
T:Public Domain Courtesy of the Cyber Hymnal™
C:James Leach (1762-1797)
Z:Public Domain
Z:Courtesy of the Cyber Hymnal™
%%score ( 1 2 ) ( 3 4 )
L:1/8
Q:1/4=140
M:2/2
K:Bb
V:1 treble 
V:2 treble 
V:3 bass 
V:4 bass 
V:1
 G4 | [GB]4 [Gd]4 | [Fc]2 [GB]2 [FA]4 | [DG]4 [DB]4 | [Dd]4 [Ff]4 | B4 [Ac]4 | %6
 !fermata![Gd]4 [Gd]4 | [Ff]4 [Bd]4 | [Ac]4 [Ge]4 | [Fd]2 [Ac]2 B4 | !fermata!A4 [GB]4 | %11
 [Gd]4 ([Fc] [Gd] [Ae] c) | B4 [^FA]4 | !fermata!G4 |] %14
V:2
 G4 | x8 | x8 | x8 | x8 | B4 x4 | x8 | x8 | x8 | x4 B4 | A4 x4 | x7 c | B4 x4 | G4 |] %14
V:3
 [G,D]4 | [G,D]4 [D,B,]4 | A,2 G,2 [D,^F,]4 | [G,,G,]4 [G,D]4 | [G,B,]4 [D,A,]4 | [G,D]4 [F,C]4 | %6
 !fermata![B,,B,]4 [B,D]4 | [A,C]4 B,4 | [F,A,]4 [C,C]4 | [D,D]4 G,4 | !fermata![D,F,]4 [G,D]4 | %11
 [B,,B,]4 (A,B,CB,) | [D,G,]4 [D,^F,]4 | !fermata![G,,G,]4 |] %14
V:4
 x4 | x8 | C,4 x4 | x8 | x8 | x8 | x8 | x4 B,4 | x8 | x4 G,4 | x8 | x4 C,4 | x8 | x4 |] %14

